svg/code_tags.svg

<svg xmlns="http://www.w3.org/2000/svg" viewBox="0 0 24 24"><path d="m14.6 16.6 4.6-4.6-4.6-4.6L16 6l6 6-6 6zm-5.2 0L4.8 12l4.6-4.6L8 6l-6 6 6 6z"/></svg>

<?xml version="1.0" encoding="UTF-8"?><!DOCTYPE svg PUBLIC "-//W3C//DTD SVG 1.1//EN" "http://www.w3.org/Graphics/SVG/1.1/DTD/svg11.dtd"><svg xmlns="http://www.w3.org/2000/svg" xmlns:xlink="http://www.w3.org/1999/xlink" version="1.1" id="mdi-code-tags" width="24" height="24" viewBox="0 0 24 24"><path d="M14.6,16.6L19.2,12L14.6,7.4L16,6L22,12L16,18L14.6,16.6M9.4,16.6L4.8,12L9.4,7.4L8,6L2,12L8,18L9.4,16.6Z" /></svg>
